Dominus_Dark_Funeral/scalable/apps/internet-mail.svg

<svg xmlns="http://www.w3.org/2000/svg" xmlns:xlink="http://www.w3.org/1999/xlink" width="48" height="48" viewBox="0 0 12.7 12.7"><defs><linearGradient id="c"><stop offset="0" stop-color="#999"/><stop offset="1" stop-color="#fff"/></linearGradient><linearGradient id="b"><stop stop-color="#b3b3b3" offset="0"/><stop stop-color="#ccc" offset=".62"/><stop stop-color="#fff" offset="1"/></linearGradient><radialGradient xlink:href="#b" id="a" gradientUnits="userSpaceOnUse" gradientTransform="matrix(1.31945 1.5808 -1.96421 1.63947 580.28 -475.88)" cx="4.37" cy="288.05" fx="4.37" fy="288.05" r="5.35"/><radialGradient xlink:href="#c" id="d" cx="4.13" cy="4.09" fx="4.13" fy="4.09" r="5.34" gradientTransform="matrix(1.65561 1.98566 -1.30408 1.08732 2.22 -9.73)" gradientUnits="userSpaceOnUse"/></defs><path d="M6.35.07c-1.54 0-2.78.3-3.69.88A3.67 3.67 0 0 0 1.01 4.2C1 6.1 2.54 8.66 3 9.4a14.41 14.41 0 0 0 1.65 2.16c.68.7 1.21 1.02 1.69 1.02s1.01-.32 1.69-1.02c.52-.55 1.11-1.31 1.65-2.16.47-.74 2-3.29 2-5.2 0-1.42-.57-2.55-1.65-3.25A6.76 6.76 0 0 0 6.35.07z" fill="url(#d)"/><path d="M1.04 3.9c0 .1-.04.2-.04.32 0 1.91 1.54 4.47 2.01 5.2.54.85 1.13 1.61 1.65 2.16.68.7 1.21 1.03 1.69 1.03s1.01-.33 1.69-1.03a15.2 15.2 0 0 0 1.65-2.15c.47-.74 2-3.3 2-5.21 0-.11-.02-.21-.03-.32a5.5 5.5 0 0 1-.21 1.3c-.15.53-.36 1.05-.58 1.53-.44.97-.95 1.8-1.18 2.17a15.2 15.2 0 0 1-1.65 2.15 4.9 4.9 0 0 1-.92.78c-.28.17-.53.25-.77.25s-.5-.08-.77-.25a4.76 4.76 0 0 1-.92-.78A14.41 14.41 0 0 1 3.01 8.9a19.2 19.2 0 0 1-1.18-2.17c-.22-.48-.43-1-.58-1.52a5.66 5.66 0 0 1-.21-1.31z" opacity=".5"/><path d="M1.47 2.24a3.67 3.67 0 0 0-.02.04L4.06 5.2l.08.09-.08.08-2.02 2.26.03.07 2-2.03c.07-.09.16-.15.25-.21.09.08.2.15.35.21.33.14.81.22 1.68.22.86 0 1.36-.08 1.66-.22.16-.05.27-.13.36-.2.09.06.18.12.26.2l2 2.02.04-.07-2.04-2.27-.07-.06.07-.07 2.63-2.92-.03-.04-2.6 2.64c-.63.6-1.4.7-2.28.67-.84-.02-1.7 0-2.29-.67z" fill="#333" fill-rule="evenodd"/><path d="M1.47 2.24c3.64 5.98 4.2 5.37 4.2 5.37s1.99.34 2.45-.17c.46-.5 3.14-5.14 3.14-5.14-2.79 1.41-5.98 1.62-9.8-.06z" fill="none"/></svg>

<?xml version="1.0" encoding="UTF-8" standalone="no"?>
<svg
   xmlns:dc="http://purl.org/dc/elements/1.1/"
   xmlns:cc="http://creativecommons.org/ns#"
   xmlns:rdf="http://www.w3.org/1999/02/22-rdf-syntax-ns#"
   xmlns:svg="http://www.w3.org/2000/svg"
   xmlns="http://www.w3.org/2000/svg"
   xmlns:xlink="http://www.w3.org/1999/xlink"
   xmlns:sodipodi="http://sodipodi.sourceforge.net/DTD/sodipodi-0.dtd"
   xmlns:inkscape="http://www.inkscape.org/namespaces/inkscape"
   width="48"
   height="48"
   viewBox="0 0 12.7 12.7"
   version="1.1"
   id="svg26"
   sodipodi:docname="internet-mail.svg"
   inkscape:version="0.92.4 (5da689c313, 2019-01-14)">
  <metadata
     id="metadata30">
    <rdf:RDF>
      <cc:Work
         rdf:about="">
        <dc:format>image/svg+xml</dc:format>
        <dc:type
           rdf:resource="http://purl.org/dc/dcmitype/StillImage" />
        <dc:title></dc:title>
      </cc:Work>
    </rdf:RDF>
  </metadata>
  <sodipodi:namedview
     pagecolor="#ffffff"
     bordercolor="#666666"
     borderopacity="1"
     objecttolerance="10"
     gridtolerance="10"
     guidetolerance="10"
     inkscape:pageopacity="0"
     inkscape:pageshadow="2"
     inkscape:window-width="1112"
     inkscape:window-height="480"
     id="namedview28"
     showgrid="false"
     inkscape:zoom="4.9166667"
     inkscape:cx="2.1355932"
     inkscape:cy="24"
     inkscape:window-x="0"
     inkscape:window-y="25"
     inkscape:window-maximized="0"
     inkscape:current-layer="svg26" />
  <defs
     id="defs16">
    <linearGradient
       id="c">
      <stop
         offset="0"
         stop-color="#999"
         id="stop2" />
      <stop
         offset="1"
         stop-color="#fff"
         id="stop4" />
    </linearGradient>
    <linearGradient
       id="b">
      <stop
         stop-color="#b3b3b3"
         offset="0"
         id="stop7" />
      <stop
         stop-color="#ccc"
         offset=".62"
         id="stop9" />
      <stop
         stop-color="#fff"
         offset="1"
         id="stop11" />
    </linearGradient>
    <radialGradient
       xlink:href="#b"
       id="a"
       gradientUnits="userSpaceOnUse"
       gradientTransform="matrix(1.31945 1.5808 -1.96421 1.63947 580.28 -475.88)"
       cx="4.37"
       cy="288.05"
       fx="4.37"
       fy="288.05"
       r="5.35" />
    <radialGradient
       xlink:href="#c"
       id="d"
       cx="4.13"
       cy="4.09"
       fx="4.13"
       fy="4.09"
       r="5.34"
       gradientTransform="matrix(1.65561,1.98566,-1.30408,1.08732,2.22,-9.73)"
       gradientUnits="userSpaceOnUse" />
  </defs>
  <path
     d="m 6.35,0.07 c -1.54,0 -2.78,0.3 -3.69,0.88 A 3.67,3.67 0 0 0 1.01,4.2 C 1,6.1 2.54,8.66 3,9.4 a 14.41,14.41 0 0 0 1.65,2.16 c 0.68,0.7 1.21,1.02 1.69,1.02 0.48,0 1.01,-0.32 1.69,-1.02 0.52,-0.55 1.11,-1.31 1.65,-2.16 0.47,-0.74 2,-3.29 2,-5.2 0,-1.42 -0.57,-2.55 -1.65,-3.25 A 6.76,6.76 0 0 0 6.35,0.07 Z"
     id="path18"
     style="fill:url(#d)"
     inkscape:connector-curvature="0" />
  <path
     d="M 1.04,3.9 C 1.04,4 1,4.1 1,4.22 c 0,1.91 1.54,4.47 2.01,5.2 0.54,0.85 1.13,1.61 1.65,2.16 0.68,0.7 1.21,1.03 1.69,1.03 0.48,0 1.01,-0.33 1.69,-1.03 A 15.2,15.2 0 0 0 9.69,9.43 c 0.47,-0.74 2,-3.3 2,-5.21 0,-0.11 -0.02,-0.21 -0.03,-0.32 A 5.5,5.5 0 0 1 11.45,5.2 C 11.3,5.73 11.09,6.25 10.87,6.73 10.43,7.7 9.92,8.53 9.69,8.9 A 15.2,15.2 0 0 1 8.04,11.05 4.9,4.9 0 0 1 7.12,11.83 C 6.84,12 6.59,12.08 6.35,12.08 6.11,12.08 5.85,12 5.58,11.83 A 4.76,4.76 0 0 1 4.66,11.05 14.41,14.41 0 0 1 3.01,8.9 19.2,19.2 0 0 1 1.83,6.73 C 1.61,6.25 1.4,5.73 1.25,5.21 A 5.66,5.66 0 0 1 1.04,3.9 Z"
     id="path20"
     inkscape:connector-curvature="0"
     style="opacity:0.5" />
  <path
     d="M 1.47,2.24 A 3.67,3.67 0 0 0 1.45,2.28 L 4.06,5.2 4.14,5.29 4.06,5.37 2.04,7.63 2.07,7.7 4.07,5.67 C 4.14,5.58 4.23,5.52 4.32,5.46 4.41,5.54 4.52,5.61 4.67,5.67 5,5.81 5.48,5.89 6.35,5.89 7.21,5.89 7.71,5.81 8.01,5.67 8.17,5.62 8.28,5.54 8.37,5.47 8.46,5.53 8.55,5.59 8.63,5.67 l 2,2.02 L 10.67,7.62 8.63,5.35 8.56,5.29 8.63,5.22 11.26,2.3 11.23,2.26 8.63,4.9 C 8,5.5 7.23,5.6 6.35,5.57 5.51,5.55 4.65,5.57 4.06,4.9 Z"
     id="path22"
     inkscape:connector-curvature="0"
     style="fill:#333333;fill-rule:evenodd" />
  <path
     d="m 1.47,2.24 c 3.64,5.98 4.2,5.37 4.2,5.37 0,0 1.99,0.34 2.45,-0.17 C 8.58,6.94 11.26,2.3 11.26,2.3 8.47,3.71 5.28,3.92 1.46,2.24 Z"
     id="path24"
     inkscape:connector-curvature="0"
     style="fill:none" />
</svg>
